X:203
T: DUNKLE NACHT IM FINSTERN SCHLEIER
N: E1342B
O: Europa, Mitteleuropa, Deutschland, Hessen, Darmstadt
R: Staende -, Soldaten -, Kriegs - Lied
M: 4/4
L: 1/16
K: C
G3G | c6B2A2G2F2E2 | G4F4z4
G3G | B6A2G2G2F3G | E8z4
G3c | e6d2c2B2A2G2 | B4A4z4
c3c | c6G2G2G2F3G | E8z4
G3c | e6d2c2B2A2G2 | B4A4z4
c3c | c6G2G2G2F3G | E8z4

